X:53
T:Lady Louisa Ramsay’s Strathspey. 2voices. Dix.53
M:C
L:1/8
Q:1/4=90
S:Anon. MS dated 1811, from Dixon collection, Holton le Moor, Lincs.
R:strathspey
N:Repeat signs added at start
O:England;Lincolnshire;Holton le Moor
Z:vmp.R.Greig 2012 <http://www.village-music-project.org.uk>
K:C
[V:1]|:g|e<gg>a gecg|g>ca>e eddf|e<gg>a gage|(f/e/d/c/) Bg ecc:|!
[V:2]|:z|C,2C2E,2F,2|E,2F,2G,2G,,2|C,2C2E,2C,2|D,2G,,2C,2E,,:|!
[V:1]|:z”^rest added”|G<cE<c d>cd>e|c<c{cd}e>d c<AA<c|G<cE<c d>cd<e|cG A/B/c/G/ ECCc|!
[V:2]|:z|E,2C,2F,2G,2|E,2C,2F,2F,,2|E,2C,2F,2G,2|E,2F,2E,2″cr.in ms”C,C,,|
[V:1]G>cE>c d>cd>e|c<c{cd}e>c cAAc|G<cE>c F<cG<c|Aa”tr”g>f ecc:|
[V:2]”_8vo”E,2C,2F,2G,2|E,2C,2F,2F,2|E,2C,2D,2E,2|F,2G,2C,2″cr in ms”C,:|

